X:1
T:Title
%%score 1 2 3 4
L:1/8
M:3/2
K:C
V:1 treble nm="Part_1"
V:2 treble nm="Part_2"
V:3 treble-8 nm="Part_3"
V:4 treble nm="Part_4"
V:1
 D12 | D6 E2 F4- | F4 E6 D2 | D6 C2 C3 B, | D4 z4 F4 | E4 A6 G2 | G4 A2 c4 B2 | A4 G2 F2 E4 | %8
 D2 F2 E2 D4 G2 | F2 A4 G2 F2 E2- | E2 G2 F2 D4 E2- | E2 F3 D E3 B, ^C2 | D12 | z12 | %14
 D4 D4 A,3 B, | C6 D2 E4 | F6 D2 F4 | E8 C4 | E4 A6 G2 | G3 E F3 E C2 D2 | C4 F4 E3 D | D4 z4 E4 | %22
 F4 F4 E3 D | D2 A,2 D2 ^CD C2 B,2 | D12 | z12 | F4 F4 F4 | E4 E2 A2 G3 E | F3 D C4 z2 F2 | %29
 E2 A4 A2 G3 F | A4 F8 | G2 A4 F3 E E2- | E2 E2 E4 E4 | E4 E4 E4 | F4 F4 F2 F2 | E2 G4 F2 E4 | %36
 D2 C2 E4 G4 | F2 E2 D2 D4 ^C2 | D12 | z12 | z12 | z4 z4 F4 | F6 G2 A2 _B2 | A4 G2 E2 F2 E2 | %44
 C3 D E2 F2 G4 | A2 F4 F2 E3 D | F8 z4 | A6 G2 A3 F | E4 z2 G2 A2 c2 | B2 G2 A4 G4 | %50
 z2 F2 D2 G2 A2 F2 | G12 | z4 z4 G4 | F8 F3 D | E3 F G2 A2 B2 AB | c4 A2 G4 D2- | D2 G4 F2 F3 E | %57
 G3 E F2 G3 FED | C4 z4 E4 | F2 D4 C4 F2 | E2 D4 F4 A2- | AG FE F3 D C2 B,C | D8 z4 | F4 E2 F2 D4 | %64
 C6 D2 E2 F2 | E3 F G3 F D4 | C4 z2 F4 E2- | E2 A4 G4 FG | A6 F2 G2 A2 | F4 z2 E2 F4 | %70
 D2 F4 G2 E4 | F4 A6 G2 | G2 FG A2 F4 E2 | G4 E2 G3 FED | C4 F2 E2 A4 | G2 G2 A2 F2 E2 G2 | %76
 F2 D3 A, D4 C2 | D12 | z4 z4 F4 || F6 D2 F3 G | A6 GA G3 E | F4 D4 z4 | F4 E4 A4 | A8 G3 F | %84
 A6 G2 F2 E2 | F2 E4 C2 B,4 | A,2 C4 D2 E3 F | D4 ^C2 C4 B,2 | D12 | z12 | z4 z4 F4 | F8 F4 | %92
 A8 A4 | A3 G F2 D2 E4 | D4 F6 E2 | C6 D2 E3 F | G4 F4 A4- | A2 G2 G4 c4 | B2 A4 A2 G2 FG | A12 | %100
 z4 z4 F4 | E6 C2 D4 | C4 F6 E2 | E4 D2 C2 B,4 | A,4 z4 G4 | F2 A4 G2 E4 | D4 E2 F2 G4 | %107
 A6 D2 F2 E2 | D6 F2 E2 A2- | A2 G2 F2 E4 G2 | F2 D2 C4 E2 D2 | B,2 C2 A,4 B,2 C2 | %112
 D2 E4 F2 G2 A2 | F2 E3 D D4 ^C2 | D12 | z4 z4 F4 | F6 D2 E4 | D4 C2 C4 B,2 | D4 F4 F2 G2 | E12 | %120
 E4 F2 A4 G2 | F4 E2 E3 D CB, | A,4 z4 C3 D | E6 F2 G4 | A6 G2 F2 E2 | F4 E6 D2 | %126
 D2 CD E2 ^C4 B,2 | D12 |] %128
V:2
 z12 | z12 | z12 | z12 | z12 | z12 | z12 | z12 | z12 | z12 | z12 | z12 | z4 z4 D,4 | D,12 | F,12 | %15
 E,12 | D,12 | A,12 | C12 | B,4 A,6 G,2 | A,8 G,4 | F,4 E,8 | D,4 A,4 G,4 | F,4 D,4 E,4 | D,8 z4 | %25
 D8 C3 B, | D8 A,4- | A,4 C8 | D4 E6 D2 | C6 A,2 B,4 | A,4 D6 C2 | D2 E2 D2 A,2 D2 E2 | C12- | %33
 C12 | D12 | C4 B,2 A,4 G,2- | G,2 A,4 C4 B,2 | A,4 G,2 F,2 E,4 | D,8 D4 | D4 D4 D2 C2 | A,8 C4 | %41
 D12- | D12 | C8 A,4- | A,4 z4 B,4 | A,6 F,2 G,4 | F,12 | z4 z4 C4 | C6 B,2 C2 A,2 | %49
 G,4 F,4 z2 G,2 | B,2 D4 B,2 A,4 | G,12- | G,12 | D12 | C3 D E2 C2 D4 | C8 B,4- | B,4 A,8 | %57
 G,4 A,2 B,2 G,4 | A,12 | D,4 F,2 E,2 A,4 | G,2 F,2 D,8 | z2 C,2 D,4 E,4 | D,12 | z12 | A,12- | %65
 A,4 G,8 | A,8 C4- | C4 B,8 | A,4 D4 C4 | D4 E4 D4- | D2 G,2 D2 E2 C4 | D8 C4 | B,4 A,8 | G,12 | %74
 A,6 G,2 F,4 | E,4 D,4 C,4 | z2 F,4 D,2 E,4 | D,12 | z12 || z4 z4 D,4 | D,6 F,2 E,4 | D,12 | %82
 A,8 C4- | C4 B,8 | A,12- | A,8 G,4 | A,8 G,4 | F,4 E,8 | D,12 | A,2 G,2 F,3 D, E,4 | D,12- | %91
 D,12 | z12 | D8 C3 B, | D8 A,4- | A,8 C4- | C4 D8- | D4 E8 | D2 C4 A,2 B,4 | A,12- | A,12 | z12 | %102
 z12 | z12 | z12 | z12 | z12 | z12 | z12 | z12 | z12 | z12 | z12 | z12 | z12 | D12- | D8 C4 | %117
 D4 E8 | D4 A,4 D2 E2 | C12- | C12 | D4 C3 B, A,3 G, | A,12 | C8 B,4 | A,12- | A,8 G,4 | F,4 E,8 | %127
 D,12 |] %128
V:3
 d12 | B6 c2 d4 | A6 B2 c4 | d4 e6 d2 | d8 d4 | c4 f6 e2 | e4 c4 e2 d2- | d2 c2 B2 A4 G2 | %8
 F2 D2 G3 F G2 E2 | D4 F2 E2 A4 | G2 E2 D4 F2 G2 | A4 F2 G2 E4 | D8 z4 | d8 A4- | A8 F3 G | A8 c4 | %16
 d4 B4 A2 B2 | c12 | z4 z4 A4 | E2 F2 D3 E F2 D2 | E4 z4 z4 | A3 B c8 | d4 c8 | A4 z2 G2 A4- | %24
 A4 F2 D2 F3 G | A8 G4 | A12 | c4 A3 F G4 | A2 D2 A4 G2 F2 | A4 c4 z4 | c4 f6 e2 | d2 c2 F4 D2 E2 | %32
 A12 | z4 z4 A4 | A12 | A2 e3 d c3 A B2- | B2 A2 c4 e2 d2 | c4 z2 A2 A3 E | F4 D4 A3 B | A8 z4 | %40
 c4 F2 A2 G4 | A12- | A8 D4 | z12 | A6 c2 d3 B | c2 Bc d2 B2 c4 | A4 c4 d3 c | c8 z2 A2 | %48
 G4 z4 c4 | d2 e2 f4 e4 | d4 z2 d2 e2 c2 | d4 B2 e4 d2 | B2 AB c2 B2 G4 | A12 | z4 z4 d4 | %55
 e4 c2 e2 d4 | B2 d4 A2 d4 | B4 c2 d4 B2 | c2 e4 c4 A2 | d4 A2 G2 F4 | z2 A2 d4 A4 | c4 A4 z4 | %62
 F6 D2 A4 | d4 B2 c2 A2 G2 | A4 z4 c4- | c4 d8 | z4 c4 A4 | e4 z4 e4- | e2 c2 A4 z2 A2 | A12- | %70
 A4 B2 c2 G4 | A4 z4 A4 | B4 d4 A3 F | E8 D4 | E4 D2 E2 F4 | G2 c4 B2 c4 | d3 c A2 G2 A4 | F8 D4 | %78
 d8 z4 || d4 A4 A2 B2- | B2 d4 d2 e2 c2 | d4 z4 d4 | d4 c6 A2 | e4 d4 z2 e2 | c4 d6 c2 | %85
 d2 e2 c2 e3 d B2 | c4 z4 c4 | A8 z2 E2 | F4 D4 d4 | c2 e3 d d3 ^ccB | d12 | z4 z4 A4 | c8 F4- | %93
 F4 A4 z4 | A8 F3 G | A4 E4 A4 | G4 A4 F4 | A3 B c4 z4 | d2 c2 f4 d3 e | f6 e2 d3 c | c12 | z12 | %102
 z12 | z12 | z12 | z12 | z12 | z12 | z12 | z12 | z12 | z12 | z12 | z12 | z12 | A12 | D8 A4 | %117
 B4 A4 z4 | A4 d4 B2 c2 | G2 A2 A8 | z4 F4 z2 G2 | A8 A3 B | c8 e4 | A8 G4 | z4 d6 e2 | d4 c6 B2 | %126
 A8 ^G3 ^F | A12 |] %128
V:4
 z12 | z12 | z12 | z12 | z12 | z12 | z12 | z12 | z12 | z12 | z12 | z12 | z4 z4 D,4 | A,12 | D,12 | %15
 A,,12 | z4 z4 D,4 | A,,12- | A,,12 | E,4 z4 z2 B,,2 | A,,8 C,4 | D,4 A,,8 | z4 A,,4 C,4 | %23
 D,4 B,,4 A,,4 | z4 D,8- | D,4 F,3 D, E,4 | D,12 | A,,12 | E,4 D,3 B,, A,,4 | C,2 D,2 A,,4 z4 | %30
 E,4 A,,4 _B,,4 | _B,,2 C,2 D,6 C,2 | A,,12- | A,,12 | D,12 | z12 | z4 z4 A,,4 | %37
 A,,2 C,4 D,2 A,,4 | A,8 D,4 | D,4 D,4 B,,2 A,,2- | A,,2 A,4 F,2 E,4 | D,12- | D,12 | %43
 F,4 C,4 D,2 C,2 | F,4 C2 A,2 G,4 | F,4 D,4 C,4 | z4 z4 F,4 | F,6 E,2 F,4 | C,4 F,2 G,2 F,4 | %49
 z2 G,2 D,4 E,4 | G,2 D,2 G,4 C4 | B,8 G,4- | G,4 E,8 | D,12 | A,3 F, E,2 A,2 G,4 | %55
 C,4 F,2 E,2 G,4- | G,4 D,8 | z4 z4 E,4 | A,,12 | A,4 z4 C4 | B,3 A, A,6 F,2- | F,2 G,2 D,4 A,,4 | %62
 z4 z4 D,4 | D,6 C,2 D,2 B,,2 | A,,12 | z4 B,,8 | A,,12- | A,,4 E,8 | z2 F,4 D,2 E,4 | %69
 D,4 A,,4 D,4- | D,4 D,2 C,4 E,2 | D,8 F,4 | G,4 D,8 | z2 E,2 C,4 B,,4 | A,,4 z4 D,4 | %75
 E,2 G,2 F,4 G,4 | D,6 B,,2 A,,4 | A,12 | D,12 || D,12 | z4 z4 G,4 | A,4 F,6 D,2 | D,4 A,,8- | %83
 A,,4 z4 E,4 | F,4 D,6 A,,2 | D,2 C,2 A,,4 E,4 | z4 A,,4 C,4 | D,4 A,,8 | A,4 F,4 z2 D,2 | %89
 A,,2 C,2 D,4 A,,4 | A,12- | A,12 | F,12 | D,8 A,4 | D,8 D,2 C,2 | A,,12 | E,4 C,4 z4 | F,4 C,8 | %98
 G,2 A,2 F,4 G,4 | D,6 C,2 D,4 | A,,8 A,4 | C6 A,2 B,4 | A,6 F,2 A,4 | G,2 C2 B,2 A,4 G,2 | %104
 A,4 F,2 G,2 E,4 | D,4 z4 C4 | B,2 D2 C2 A,3 F, E,2- | E,2 D,4 D4 C2 | B,2 D6 z2 D,2 | %109
 F,2 E,2 D,2 A,2 G,2 E,2 | D,2 F,2 E,2 C,4 F,2 | G,2 A,4 F,2 G,2 A,2 | B,2 C2 A,4 E,2 F,2 | %113
 D,2 G,2 A,2 F,2 E,4 | D,12 | D,12 | z12 | D,4 A,8 | D,8 D,2 C,2- | C,2 A,,2 A,,8 | A,6 F,2 E,4 | %121
 D,4 A,,4 z4 | A,,12- | A,,8 E,4 | F,4 D,6 C,2 | D,4 A,,4 C,4 | D,4 A,,4 z4 | D,12 |] %128

